packages/icons/themed-assets/autosaveError-fill-md.svg

<svg width="24" height="24" viewBox="0 0 24 24" fill="none" xmlns="http://www.w3.org/2000/svg">
    <path fill-rule="evenodd" clip-rule="evenodd" d="M7 20H17.5H18V19.9776C20.8032 19.725 23 17.369 23 14.5C23 11.9332 21.2417 9.77712 18.8639 9.17043C18.2503 6.21826 15.6342 4 12.5 4C9.78783 4 7.46364 5.6611 6.48927 8.02143C3.41461 8.28061 1 10.8583 1 14C1 17.3137 3.68629 20 7 20ZM12 8C12.5523 8 13 8.44772 13 9V13C13 13.5523 12.5523 14 12 14C11.4477 14 11 13.5523 11 13V9C11 8.44772 11.4477 8 12 8ZM11 16C11 15.4477 11.4477 15 12 15H12.01C12.5623 15 13.01 15.4477 13.01 16C13.01 16.5523 12.5623 17 12.01 17H12C11.4477 17 11 16.5523 11 16Z" fill="#1D3F66"/>
</svg>

<svg width="24" height="24" viewBox="0 0 24 24" fill="none" xmlns="http://www.w3.org/2000/svg">
    <path fill-rule="evenodd" clip-rule="evenodd" d="M7 20h11v-.022a5.5 5.5 0 0 0 .864-10.808A6.502 6.502 0 0 0 6.489 8.021 6 6 0 0 0 7 20zm5-12a1 1 0 0 1 1 1v4a1 1 0 1 1-2 0V9a1 1 0 0 1 1-1zm-1 8a1 1 0 0 1 1-1h.01a1 1 0 1 1 0 2H12a1 1 0 0 1-1-1z" fill="#1D3F66"/>
</svg>
